src/icons/technologies/Sqlite.svg

<?xml version="1.0" encoding="UTF-8" standalone="no"?>
<svg
   width="256"
   height="256"
   viewBox="0 0 256 256"
   fill="none"
   version="1.1"
   id="svg5"
   xmlns="http://www.w3.org/2000/svg"
   xmlns:svg="http://www.w3.org/2000/svg">
  <g
     clip-path="url(#clip0_141_14)"
     id="g3">
    <path
       d="M 58.0884,0 H 197.912 C 229.993,0 256,26.007 256,58.0884 V 197.912 C 256,229.993 229.993,256 197.912,256 H 58.0884 C 26.007,256 0,229.993 0,197.912 V 58.0884 C 0,26.007 26.007,0 58.0884,0 Z"
       fill="url(#paint0_linear_141_14)"
       id="path1"
       style="fill:url(#paint0_linear_141_14)" />
    <path
       d="m 246.309,36.6234 c -9.5,-8.594 -21.003,-5.1419 -32.356,5.0783 -1.685,1.5184 -3.366,3.2029 -5.04,5.0024 -19.421,20.8983 -37.447,59.6079 -43.048,89.1719 2.182,4.487 3.886,10.215 5.007,14.59 0.289,1.122 0.548,2.176 0.756,3.072 0.492,2.121 0.757,3.496 0.757,3.496 0,0 -0.174,-0.669 -0.888,-2.77 -0.136,-0.403 -0.287,-0.843 -0.467,-1.361 -0.077,-0.214 -0.183,-0.474 -0.3,-0.751 -1.267,-2.987 -4.771,-9.292 -6.313,-12.038 -1.319,3.948 -2.485,7.64 -3.461,10.981 4.452,8.263 7.165,22.424 7.165,22.424 0,0 -0.235,-0.917 -1.353,-4.12 -0.994,-2.834 -5.941,-11.627 -7.114,-13.681 -2.004,7.506 -2.8,12.574 -2.082,13.808 1.394,2.391 2.722,6.517 3.889,11.079 2.635,10.279 4.466,22.791 4.466,22.791 0,0 0.06,0.83 0.159,2.106 -0.366,8.631 -0.147,17.58 0.513,25.669 0.872,10.707 2.516,19.906 4.611,24.829 l 1.421,-0.787 c -3.076,-9.698 -4.325,-22.409 -3.778,-37.068 0.827,-22.406 5.911,-49.427 15.303,-77.59 15.868,-42.5146 37.884,-76.6257 58.034,-92.9158 -18.366,16.8239 -43.222,71.2818 -50.663,91.4478 -8.33,22.583 -14.235,43.775 -17.793,64.079 6.139,-19.034 25.989,-27.217 25.989,-27.217 0,0 9.736,-12.178 21.113,-29.578 -6.815,1.576 -18.006,4.275 -21.755,5.873 -5.528,2.352 -7.018,3.155 -7.018,3.155 0,0 17.91,-11.064 33.276,-16.072 21.133,-33.762 44.155,-81.7239 20.97,-102.7036 z"
       fill="#003b57"
       id="path2" />
    <path
       d="m 33.7305,48.6201 c -2.993,0 -5.4268,0.8878 -7.2925,2.6624 -1.8658,1.7762 -2.8123,4.1044 -2.8123,6.9572 0,1.4784 0.2351,2.8264 0.6982,4.0615 0.4632,1.2378 1.1839,2.3843 2.1529,3.4203 0.9689,1.037 2.9085,2.4456 5.799,4.2365 3.547,2.1697 5.8682,3.9305 6.9822,5.3054 1.1149,1.3736 1.668,2.8133 1.668,4.3142 0,2.0096 -0.6602,3.6136 -2.017,4.8195 -1.3593,1.2063 -3.177,1.8073 -5.4306,1.8073 -2.3771,0 -4.4477,-0.8396 -6.2258,-2.5069 -1.7781,-1.6698 -2.6757,-3.8782 -2.6959,-6.6463 h -1.1055 v 10.0471 h 1.1055 c 0.3375,-0.9514 0.8045,-1.4381 1.4158,-1.4381 0.2941,0 0.9829,0.2033 2.0559,0.583 2.6105,0.9307 4.7541,1.3798 6.4391,1.3798 2.9038,0 5.3825,-1.019 7.4476,-3.09 2.0621,-2.0699 3.1033,-4.5668 3.1033,-7.4818 0,-2.2603 -0.6874,-4.2713 -2.0365,-6.0243 -1.3492,-1.7551 -3.9729,-3.7966 -7.8938,-6.141 -3.3739,-2.0311 -5.564,-3.6854 -6.5749,-4.975 -1.0123,-1.2877 -1.5322,-2.7122 -1.5322,-4.2753 0,-1.6907 0.6199,-3.0488 1.8426,-4.0616 1.2226,-1.0136 2.8247,-1.5158 4.8293,-1.5158 2.256,0 4.1365,0.6708 5.6245,2.0211 1.4865,1.3525 2.3461,3.2269 2.5989,5.6357 h 1.1056 v -8.7062 h -1.028 c -0.1256,0.4438 -0.242,0.7276 -0.3491,0.8551 -0.104,0.1267 -0.3041,0.1943 -0.6012,0.1943 -0.3576,0 -0.9954,-0.1508 -1.9007,-0.447 -1.9395,-0.6545 -3.7277,-0.9911 -5.3724,-0.9911 z m 36.1328,0 c -3.647,0 -6.9581,0.8613 -9.9496,2.5846 -2.9962,1.7203 -5.3678,4.109 -7.118,7.1516 -1.7494,3.0422 -2.6183,6.2733 -2.6183,9.7166 0,4.6262 1.5113,8.7475 4.5579,12.3598 3.048,3.61 6.7005,5.8594 10.9387,6.724 0.969,0.5058 2.3553,1.8117 4.1698,3.9255 2.0451,2.3853 3.7751,4.1059 5.1979,5.1304 1.4213,1.0251 2.9558,1.7763 4.5772,2.2737 1.623,0.4953 3.3779,0.7385 5.2754,0.7385 2.2979,0 4.3553,-0.4002 6.1676,-1.2244 l -0.4073,-1.0105 c -1.0519,0.3803 -2.1738,0.5636 -3.3553,0.5636 -1.6036,0 -3.2242,-0.5298 -4.8487,-1.5935 -1.6222,-1.0664 -3.651,-3.1009 -6.0706,-6.1022 -1.1374,-1.438 -1.9225,-2.3453 -2.3662,-2.7011 4.6369,-0.9074 8.45,-3.1592 11.4236,-6.7629 2.9729,-3.6022 4.4608,-7.7133 4.4608,-12.3209 0,-5.4707 -1.9426,-10.0685 -5.7991,-13.8171 -3.8595,-3.7489 -8.6059,-5.6357 -14.2358,-5.6357 z m 22.5562,0 0.0583,1.1855 c 2.4282,0 3.7882,0.7167 4.0923,2.1571 0.1132,0.5154 0.1652,1.4669 0.1746,2.8372 l -0.0195,26.2157 c -0.0201,1.958 -0.2986,3.2082 -0.8339,3.7507 -0.5361,0.5387 -1.4422,0.8761 -2.7541,1.0105 l -0.0581,1.1855 h 24.2049 l 0.62,-5.9467 h -1.105 c -0.315,1.62 -1.039,2.7805 -2.191,3.4398 -1.156,0.6641 -3.198,0.9911 -6.149,0.9911 h -2.289 c -2.654,0 -4.19,-0.9617 -4.596,-2.8956 -0.084,-0.3826 -0.112,-0.7929 -0.116,-1.2438 l 0.097,-26.5072 c -0.001,-1.9548 0.246,-3.2648 0.756,-3.906 0.516,-0.6391 1.446,-0.9967 2.792,-1.0883 l -0.057,-1.1855 z m -22.1683,1.4381 c 4.1132,0 7.4717,1.6232 10.066,4.8972 2.5934,3.2751 3.879,7.764 3.879,13.448 0,5.3861 -1.3042,9.6987 -3.9178,12.9426 -2.6138,3.2429 -6.0924,4.8584 -10.4151,4.8584 -4.1529,0 -7.5206,-1.6659 -10.1048,-5.0138 -2.5819,-3.3481 -3.8596,-7.6947 -3.8596,-13.0399 0,-5.4927 1.2933,-9.8895 3.8984,-13.1758 2.6036,-3.2829 6.09,-4.9167 10.4539,-4.9167 z m 55.6638,5.6357 c -0.59,0 -1.041,0.1998 -1.377,0.6024 -0.345,0.4011 -0.45,0.8869 -0.33,1.477 0.116,0.5723 0.438,1.0739 0.95,1.4963 0.509,0.422 1.059,0.6413 1.649,0.6413 0.57,0 1.006,-0.2193 1.319,-0.6413 0.313,-0.4224 0.407,-0.924 0.291,-1.4963 -0.121,-0.5901 -0.432,-1.0759 -0.912,-1.477 -0.485,-0.4026 -1.02,-0.6024 -1.59,-0.6024 z m 15.962,4.0227 c -1.004,3.8666 -3.178,5.9591 -6.517,6.2964 l 0.038,1.1078 h 3.899 l -0.077,13.098 c 0.006,2.2395 0.074,3.7303 0.232,4.4892 0.384,1.8167 1.569,2.7401 3.549,2.7401 2.867,0 5.875,-1.7497 9.019,-5.247 l -0.95,-0.8163 c -2.271,2.3032 -4.279,3.4592 -6.032,3.4592 -1.077,0 -1.746,-0.6209 -1.998,-1.8462 -0.069,-0.2975 -0.096,-0.6452 -0.096,-1.0494 l 0.039,-14.8276 h 5.953 l -0.058,-1.7685 h -5.877 v -5.6357 z m 23.021,4.9361 c -3.33,0 -6.039,1.62 -8.145,4.839 -2.096,3.2244 -2.745,6.7968 -1.92,10.7271 0.485,2.3023 1.45,4.0866 2.928,5.3443 1.476,1.2571 3.348,1.885 5.585,1.885 2.085,0 4.987,-0.5287 6.207,-1.5936 1.224,-1.0642 2.353,-2.7883 3.394,-5.1497 l -0.834,-0.8746 c -1.661,3.0635 -5.016,4.6057 -7.544,4.6057 -3.478,0 -5.607,-1.9115 -6.4,-5.7134 -0.104,-0.4853 -0.181,-1.0067 -0.234,-1.5547 4.137,-0.6562 7.272,-1.8182 9.388,-3.498 2.114,-1.6807 4.237,-3.4621 3.84,-5.3442 -0.236,-1.1183 -0.816,-1.9976 -1.707,-2.6623 -0.903,-0.6644 -3.248,-1.0106 -4.558,-1.0106 z m -36.404,0.136 -7.176,1.6519 v 1.2826 l 2.482,-0.311 c 1.203,0 1.91,0.5456 2.134,1.6324 0.075,0.3638 0.122,0.8745 0.136,1.5159 l -0.078,11.7572 c -0.02,1.6269 -0.2,2.5728 -0.562,2.8567 -0.365,0.2845 -1.329,0.4275 -2.89,0.4275 l -0.039,1.1077 h 11.385 l -0.02,-1.1077 c -1.582,0 -2.607,-0.125 -3.064,-0.3692 -0.449,-0.2426 -0.758,-0.6842 -0.892,-1.3604 -0.104,-0.4873 -0.148,-1.3269 -0.155,-2.4875 l 0.039,-16.5961 z m 34.582,2.1766 c 0.692,0 1.362,0.2681 2.036,0.7968 0.664,0.5268 1.07,1.1126 1.202,1.7489 0.65,3.1258 -2.117,5.2868 -8.34,6.4908 -0.178,-2.2792 0.217,-4.3482 1.223,-6.2187 0.997,-1.8686 2.297,-2.8178 3.879,-2.8178 z"
       fill="#003b57"
       id="path3" />
  </g>
  <defs
     id="defs5">
    <linearGradient
       id="paint0_linear_141_14"
       x1="148.16499"
       y1="1.78778"
       x2="148.16499"
       y2="244.961"
       gradientUnits="userSpaceOnUse">
      <stop
         stop-color="#97D9F6"
         id="stop3" />
      <stop
         offset="0.920245"
         stop-color="#0F80CC"
         id="stop4" />
      <stop
         offset="1"
         stop-color="#0F80CC"
         id="stop5" />
    </linearGradient>
    <clipPath
       id="clip0_141_14">
      <rect
         width="256"
         height="256"
         fill="#ffffff"
         id="rect5"
         x="0"
         y="0" />
    </clipPath>
  </defs>
</svg>

<svg width="256" height="256" viewBox="0 0 256 256" fill="none" xmlns="http://www.w3.org/2000/svg">
<g clip-path="url(#clip0_141_14)">
<path d="M58.0884 0H197.912C229.993 0 256 26.007 256 58.0884V197.912C256 229.993 229.993 256 197.912 256H58.0884C26.007 256 0 229.993 0 197.912V58.0884C0 26.007 26.007 0 58.0884 0Z" fill="url(#paint0_linear_141_14)"/>
<path d="M246.309 36.6234C236.809 28.0294 225.306 31.4815 213.953 41.7017C212.268 43.2201 210.587 44.9046 208.913 46.7041C189.492 67.6024 171.466 106.312 165.865 135.876C168.047 140.363 169.751 146.091 170.872 150.466C171.161 151.588 171.42 152.642 171.628 153.538C172.12 155.659 172.385 157.034 172.385 157.034C172.385 157.034 172.211 156.365 171.497 154.264C171.361 153.861 171.21 153.421 171.03 152.903C170.953 152.689 170.847 152.429 170.73 152.152C169.463 149.165 165.959 142.86 164.417 140.114C163.098 144.062 161.932 147.754 160.956 151.095C165.408 159.358 168.121 173.519 168.121 173.519C168.121 173.519 167.886 172.602 166.768 169.399C165.774 166.565 160.827 157.772 159.654 155.718C157.65 163.224 156.854 168.292 157.572 169.526C158.966 171.917 160.294 176.043 161.461 180.605C164.096 190.884 165.927 203.396 165.927 203.396C165.927 203.396 165.987 204.226 166.086 205.502C165.72 214.133 165.939 223.082 166.599 231.171C167.471 241.878 169.115 251.077 171.21 256L172.631 255.213C169.555 245.515 168.306 232.804 168.853 218.145C169.68 195.739 174.764 168.718 184.156 140.555C200.024 98.0404 222.04 63.9293 242.19 47.6392C223.824 64.4631 198.968 118.921 191.527 139.087C183.197 161.67 177.292 182.862 173.734 203.166C179.873 184.132 199.723 175.949 199.723 175.949C199.723 175.949 209.459 163.771 220.836 146.371C214.021 147.947 202.83 150.646 199.081 152.244C193.553 154.596 192.063 155.399 192.063 155.399C192.063 155.399 209.973 144.335 225.339 139.327C246.472 105.565 269.494 57.6031 246.309 36.6234Z" fill="#003B57"/>
<path d="M33.7305 48.6201C30.7375 48.6201 28.3037 49.5079 26.438 51.2825C24.5722 53.0587 23.6257 55.3869 23.6257 58.2397C23.6257 59.7181 23.8608 61.0661 24.3239 62.3012C24.7871 63.539 25.5078 64.6855 26.4768 65.7215C27.4457 66.7585 29.3853 68.1671 32.2758 69.958C35.8228 72.1277 38.144 73.8885 39.258 75.2634C40.3729 76.637 40.926 78.0767 40.926 79.5776C40.926 81.5872 40.2658 83.1912 38.909 84.3971C37.5497 85.6034 35.732 86.2044 33.4784 86.2044C31.1013 86.2044 29.0307 85.3648 27.2526 83.6975C25.4745 82.0277 24.5769 79.8193 24.5567 77.0512H23.4512V87.0983H24.5567C24.8942 86.1469 25.3612 85.6602 25.9725 85.6602C26.2666 85.6602 26.9554 85.8635 28.0284 86.2432C30.6389 87.1739 32.7825 87.623 34.4675 87.623C37.3713 87.623 39.85 86.604 41.9151 84.533C43.9772 82.4631 45.0184 79.9662 45.0184 77.0512C45.0184 74.7909 44.331 72.7799 42.9819 71.0269C41.6327 69.2718 39.009 67.2303 35.0881 64.8859C31.7142 62.8548 29.5241 61.2005 28.5132 59.9109C27.5009 58.6232 26.981 57.1987 26.981 55.6356C26.981 53.9449 27.6009 52.5868 28.8236 51.574C30.0462 50.5604 31.6483 50.0582 33.6529 50.0582C35.9089 50.0582 37.7894 50.729 39.2774 52.0793C40.7639 53.4318 41.6235 55.3062 41.8763 57.715H42.9819V49.0088H41.9539C41.8283 49.4526 41.7119 49.7364 41.6048 49.8639C41.5008 49.9906 41.3007 50.0582 41.0036 50.0582C40.646 50.0582 40.0082 49.9074 39.1029 49.6112C37.1634 48.9567 35.3752 48.6201 33.7305 48.6201ZM69.8633 48.6201C66.2163 48.6201 62.9052 49.4814 59.9137 51.2047C56.9175 52.925 54.5459 55.3137 52.7957 58.3563C51.0463 61.3985 50.1774 64.6296 50.1774 68.0729C50.1774 72.6991 51.6887 76.8204 54.7353 80.4327C57.7833 84.0427 61.4358 86.2921 65.674 87.1567C66.643 87.6625 68.0293 88.9684 69.8438 91.0822C71.8889 93.4675 73.6189 95.1881 75.0417 96.2126C76.463 97.2377 77.9975 97.9889 79.6189 98.4863C81.2419 98.9816 82.9968 99.2248 84.8943 99.2248C87.1922 99.2248 89.2496 98.8246 91.0619 98.0004L90.6546 96.9899C89.6027 97.3702 88.4808 97.5535 87.2993 97.5535C85.6957 97.5535 84.0751 97.0237 82.4506 95.96C80.8284 94.8936 78.7996 92.8591 76.38 89.8578C75.2426 88.4198 74.4575 87.5125 74.0138 87.1567C78.6507 86.2493 82.4638 83.9975 85.4374 80.3938C88.4103 76.7916 89.8982 72.6805 89.8982 68.0729C89.8982 62.6022 87.9556 58.0044 84.0991 54.2558C80.2396 50.5069 75.4932 48.6201 69.8633 48.6201ZM92.4195 48.6201L92.4778 49.8056C94.906 49.8056 96.266 50.5223 96.5701 51.9627C96.6833 52.4781 96.7353 53.4296 96.7447 54.7999L96.7252 81.0156C96.7051 82.9736 96.4266 84.2238 95.8913 84.7663C95.3552 85.305 94.4491 85.6424 93.1372 85.7768L93.0791 86.9623H117.284L117.904 81.0156H116.799C116.484 82.6356 115.76 83.7961 114.608 84.4554C113.452 85.1195 111.41 85.4465 108.459 85.4465H106.17C103.516 85.4465 101.98 84.4848 101.574 82.5509C101.49 82.1683 101.462 81.758 101.458 81.3071L101.555 54.7999C101.554 52.8451 101.801 51.5351 102.311 50.8939C102.827 50.2548 103.757 49.8972 105.103 49.8056L105.046 48.6201H92.4195ZM70.2512 50.0582C74.3644 50.0582 77.7229 51.6814 80.3172 54.9554C82.9106 58.2305 84.1962 62.7194 84.1962 68.4034C84.1962 73.7895 82.892 78.1021 80.2784 81.346C77.6646 84.5889 74.186 86.2044 69.8633 86.2044C65.7104 86.2044 62.3427 84.5385 59.7585 81.1906C57.1766 77.8425 55.8989 73.4959 55.8989 68.1507C55.8989 62.658 57.1922 58.2612 59.7973 54.9749C62.4009 51.692 65.8873 50.0582 70.2512 50.0582ZM125.915 55.6939C125.325 55.6939 124.874 55.8937 124.538 56.2963C124.193 56.6974 124.088 57.1832 124.208 57.7733C124.324 58.3456 124.646 58.8472 125.158 59.2696C125.667 59.6916 126.217 59.9109 126.807 59.9109C127.377 59.9109 127.813 59.6916 128.126 59.2696C128.439 58.8472 128.533 58.3456 128.417 57.7733C128.296 57.1832 127.985 56.6974 127.505 56.2963C127.02 55.8937 126.485 55.6939 125.915 55.6939ZM141.877 59.7166C140.873 63.5832 138.699 65.6757 135.36 66.013L135.398 67.1208H139.297L139.22 80.2188C139.226 82.4583 139.294 83.9491 139.452 84.708C139.836 86.5247 141.021 87.4481 143.001 87.4481C145.868 87.4481 148.876 85.6984 152.02 82.2011L151.07 81.3848C148.799 83.688 146.791 84.844 145.038 84.844C143.961 84.844 143.292 84.2231 143.04 82.9978C142.971 82.7003 142.944 82.3526 142.944 81.9484L142.983 67.1208H148.936L148.878 65.3523H143.001V59.7166H141.877ZM164.898 64.6527C161.568 64.6527 158.859 66.2727 156.753 69.4917C154.657 72.7161 154.008 76.2885 154.833 80.2188C155.318 82.5211 156.283 84.3054 157.761 85.5631C159.237 86.8202 161.109 87.4481 163.346 87.4481C165.431 87.4481 168.333 86.9194 169.553 85.8545C170.777 84.7903 171.906 83.0662 172.947 80.7048L172.113 79.8302C170.452 82.8937 167.097 84.4359 164.569 84.4359C161.091 84.4359 158.962 82.5244 158.169 78.7225C158.065 78.2372 157.988 77.7158 157.935 77.1678C162.072 76.5116 165.207 75.3496 167.323 73.6698C169.437 71.9891 171.56 70.2077 171.163 68.3256C170.927 67.2073 170.347 66.328 169.456 65.6633C168.553 64.9989 166.208 64.6527 164.898 64.6527ZM128.494 64.7887L121.318 66.4406V67.7232L123.8 67.4122C125.003 67.4122 125.71 67.9578 125.934 69.0446C126.009 69.4084 126.056 69.9191 126.07 70.5605L125.992 82.3177C125.972 83.9446 125.792 84.8905 125.43 85.1744C125.065 85.4589 124.101 85.6019 122.54 85.6019L122.501 86.7096H133.886L133.866 85.6019C132.284 85.6019 131.259 85.4769 130.802 85.2327C130.353 84.9901 130.044 84.5485 129.91 83.8723C129.806 83.385 129.762 82.5454 129.755 81.3848L129.794 64.7887H128.494ZM163.076 66.9653C163.768 66.9653 164.438 67.2334 165.112 67.7621C165.776 68.2889 166.182 68.8747 166.314 69.511C166.964 72.6368 164.197 74.7978 157.974 76.0018C157.796 73.7226 158.191 71.6536 159.197 69.7831C160.194 67.9145 161.494 66.9653 163.076 66.9653Z" fill="#003B57"/>
</g>
<defs>
<linearGradient id="paint0_linear_141_14" x1="148.165" y1="1.78778" x2="148.165" y2="244.961" gradientUnits="userSpaceOnUse">
<stop stop-color="#97D9F6"/>
<stop offset="0.920245" stop-color="#0F80CC"/>
<stop offset="1" stop-color="#0F80CC"/>
</linearGradient>
<clipPath id="clip0_141_14">
<rect width="256" height="256" fill="white"/>
</clipPath>
</defs>
</svg>
